;FLAVOR:UltiGCode
;TIME:4192
;MATERIAL:5501
;MATERIAL2:0
;NOZZLE_DIAMETER:0.4
;MINX:51.944
;MINY:82.191
;MINZ:0.3
;MAXX:139.207
;MAXY:142.1
;MAXZ:12
;Generated with Cura_SteamEngine 4.6.2
M82 ;absolute extrusion mode
G0 F3000 Y50 ;avoid prime blob
G92 E0
G92 E0
G10
;LAYER_COUNT:118
;LAYER:0
M107
G0 F3600 X57.545 Y84.148 Z0.3
;TYPE:SKIRT
G11
G1 F1800 X58.475 Y83.626 E0.12798
G1 X59.432 Y83.171 E0.25514
G1 X60.161 Y82.868 E0.34987
G1 X61.164 Y82.584 E0.47496
G1 X62.207 Y82.363 E0.6029
G1 X62.987 Y82.239 E0.69768
G1 X64.044 Y82.197 E0.82462
G1 X65.107 Y82.227 E0.95223
G1 X65.894 Y82.289 E1.04696
G1 X66.948 Y82.501 E1.17597
G1 X67.97 Y82.781 E1.30313
G1 X68.72 Y83.028 E1.39789
G1 X69.684 Y83.478 E1.52555
G1 X70.617 Y83.994 E1.65349
G1 X71.288 Y84.411 E1.7483
G1 X72.107 Y85.065 E1.87407
G1 X72.893 Y85.784 E2.0019
G1 X73.448 Y86.346 E2.09668
G1 X73.943 Y86.961 E2.19141
G1 X74.373 Y87.623 E2.28614
G1 X74.834 Y88.554 E2.41081
G1 X75.534 Y90.244 E2.63032
G1 X76.125 Y91.234 E2.76867
G1 X76.833 Y92.082 E2.90124
G1 X77.66 Y92.805 E3.03306
G1 X78.6 Y93.396 E3.1663
G1 X79.614 Y93.829 E3.29861
G1 X80.715 Y94.108 E3.4349
G1 X81.826 Y94.208 E3.56876
G1 X82.944 Y94.132 E3.70323
G1 X84.038 Y93.879 E3.83798
G1 X85.055 Y93.465 E3.96974
G1 X86.023 Y92.88 E4.10547
G1 X86.88 Y92.154 E4.24025
G1 X87.604 Y91.31 E4.37369
G1 X88.191 Y90.355 E4.5082
G1 X88.83 Y88.808 E4.70906
G1 X89.212 Y87.964 E4.82023
G1 X89.614 Y87.284 E4.91502
G1 X90.082 Y86.649 E5.00968
G1 X90.771 Y85.91 E5.13092
G1 X91.498 Y85.225 E5.25079
G1 X92.099 Y84.713 E5.34553
G1 X92.864 Y84.195 E5.4564
G1 X93.775 Y83.654 E5.58354
G1 X94.474 Y83.286 E5.67833
G1 X95.466 Y82.905 E5.80585
G1 X96.484 Y82.592 E5.93366
G1 X97.249 Y82.399 E6.02833
G1 X98.306 Y82.262 E6.15623
G1 X99.366 Y82.198 E6.28367
G1 X100.156 Y82.191 E6.37847
G1 X101.202 Y82.305 E6.50473
G1 X102.253 Y82.492 E6.63283
G1 X103.023 Y82.669 E6.72764
G1 X104.023 Y83.029 E6.85518
G1 X104.993 Y83.455 E6.98231
G1 X105.699 Y83.809 E7.07709
G1 X106.585 Y84.393 E7.20443
G1 X107.43 Y85.037 E7.33192
G1 X108.033 Y85.547 E7.42669
G1 X108.758 Y86.325 E7.5543
G1 X109.431 Y87.154 E7.68244
G1 X109.897 Y87.791 E7.77715
G1 X110.272 Y88.458 E7.86897
G1 X111.648 Y88.126 E8.03883
G1 X112.424 Y87.98 E8.13358
G1 X115.285 Y87.741 E8.4781
G1 X116.075 Y87.719 E8.57293
G1 X118.942 Y87.931 E8.91791
G1 X119.725 Y88.032 E9.01265
G1 X122.515 Y88.687 E9.35655
G1 X123.273 Y88.91 E9.45137
G1 X125.924 Y89.993 E9.79501
G1 X126.637 Y90.331 E9.8897
G1 X129.092 Y91.82 E10.23425
G1 X129.743 Y92.266 E10.32894
G1 X131.928 Y94.115 E10.67243
G1 X132.502 Y94.657 E10.76716
G1 X134.373 Y96.828 E11.11108
G1 X134.855 Y97.454 E11.20589
G1 X136.357 Y99.876 E11.54788
G1 X136.736 Y100.569 E11.64266
G1 X137.847 Y103.211 E11.98659
G1 X138.112 Y103.954 E12.08125
G1 X138.795 Y106.726 E12.42384
G1 X138.942 Y107.502 E12.51862
G1 X139.184 Y110.352 E12.86185
G1 X139.207 Y111.141 E12.95657
G1 X139 Y114.029 E13.30402
G1 X138.9 Y114.813 E13.39886
G1 X138.243 Y117.614 E13.7441
G1 X138.02 Y118.372 E13.83892
G1 X136.935 Y121.025 E14.18287
G1 X136.597 Y121.739 E14.27767
G1 X135.112 Y124.187 E14.62125
G1 X134.666 Y124.839 E14.71605
G1 X132.825 Y127.017 E15.05827
G1 X132.283 Y127.591 E15.153
G1 X130.125 Y129.456 E15.49527
G1 X129.5 Y129.939 E15.59005
G1 X127.075 Y131.445 E15.9326
G1 X126.383 Y131.825 E16.02734
G1 X123.753 Y132.935 E16.3699
G1 X123.009 Y133.202 E16.46475
G1 X120.238 Y133.89 E16.80737
G1 X119.462 Y134.038 E16.90217
G1 X116.605 Y134.284 E17.24628
G1 X115.815 Y134.308 E17.34112
G1 X112.912 Y134.105 E17.69033
G1 X112.128 Y134.006 E17.78516
G1 X111.185 Y133.795 E17.90112
G1 X110.603 Y135.211 E18.08483
G1 X110.251 Y135.918 E18.1796
G1 X109.669 Y136.804 E18.30681
G1 X109.024 Y137.655 E18.43495
G1 X108.516 Y138.26 E18.52975
G1 X107.739 Y138.988 E18.65752
G1 X106.919 Y139.657 E18.78451
G1 X106.282 Y140.124 E18.87929
G1 X105.359 Y140.647 E19.0066
G1 X104.399 Y141.107 E19.13434
G1 X103.67 Y141.412 E19.22917
G1 X102.653 Y141.702 E19.35607
G1 X101.611 Y141.924 E19.48392
G1 X100.832 Y142.049 E19.57859
G1 X99.788 Y142.092 E19.70398
G1 X98.725 Y142.065 E19.83158
G1 X97.938 Y142.005 E19.9263
G1 X96.884 Y141.797 E20.05522
G1 X95.861 Y141.52 E20.1824
G1 X95.111 Y141.275 E20.27708
G1 X94.146 Y140.828 E20.4047
G1 X93.21 Y140.314 E20.53284
G1 X92.537 Y139.899 E20.62772
G1 X91.712 Y139.244 E20.75413
G1 X90.927 Y138.529 E20.88154
G1 X90.371 Y137.968 E20.97633
G1 X89.874 Y137.354 E21.07112
G1 X89.38 Y136.585 E21.1808
G1 X88.82 Y135.455 E21.33214
G1 X88.234 Y133.997 E21.5207
G1 X87.657 Y133.036 E21.65521
G1 X86.939 Y132.182 E21.7891
G1 X86.091 Y131.448 E21.92368
G1 X85.141 Y130.859 E22.05781
G1 X84.103 Y130.425 E22.19282
G1 X83.014 Y130.161 E22.32729
G1 X81.899 Y130.072 E22.46151
G1 X80.784 Y130.161 E22.59574
G1 X79.692 Y130.425 E22.73055
G1 X78.663 Y130.856 E22.86443
G1 X77.705 Y131.449 E22.99963
G1 X76.861 Y132.18 E23.13362
G1 X76.138 Y133.04 E23.26844
G1 X75.564 Y133.997 E23.40235
G1 X74.915 Y135.614 E23.61144
G1 X74.584 Y136.331 E23.70621
G1 X74.182 Y137.011 E23.801
G1 X73.714 Y137.647 E23.89575
G1 X73.028 Y138.382 E24.0164
G1 X72.311 Y139.058 E24.13465
G1 X71.71 Y139.57 E24.2294
G1 X70.948 Y140.086 E24.33983
G1 X70.037 Y140.628 E24.46703
G1 X69.339 Y140.997 E24.56178
G1 X68.361 Y141.375 E24.6876
G1 X67.346 Y141.69 E24.81513
G1 X66.581 Y141.885 E24.90986
G1 X65.518 Y142.025 E25.03853
G1 X64.457 Y142.091 E25.16609
G1 X63.668 Y142.1 E25.26078
G1 X62.636 Y141.991 E25.38531
G1 X61.584 Y141.808 E25.51344
G1 X60.814 Y141.633 E25.6082
G1 X59.788 Y141.266 E25.73896
G1 X58.819 Y140.841 E25.86593
G1 X58.113 Y140.488 E25.96065
G1 X57.245 Y139.918 E26.08526
G1 X56.398 Y139.277 E26.21273
G1 X55.793 Y138.769 E26.30753
G1 X55.059 Y137.986 E26.43632
G1 X54.384 Y137.158 E26.56451
G1 X53.917 Y136.521 E26.65929
G1 X53.397 Y135.602 E26.786
G1 X52.939 Y134.647 E26.9131
G1 X52.634 Y133.919 E27.00781
G1 X52.343 Y132.898 E27.13521
G1 X52.121 Y131.855 E27.26318
G1 X51.996 Y131.075 E27.35797
G1 X51.953 Y130.033 E27.48312
G1 X51.98 Y128.97 E27.61072
G1 X52.04 Y128.183 E27.70543
G1 X52.248 Y127.129 E27.83435
G1 X52.525 Y126.106 E27.96153
G1 X52.77 Y125.356 E28.05621
G1 X53.22 Y124.385 E28.18464
G1 X53.735 Y123.449 E28.31284
G1 X54.15 Y122.777 E28.40762
G1 X54.809 Y121.949 E28.5346
G1 X55.525 Y121.165 E28.66201
G1 X56.087 Y120.61 E28.7568
G1 X56.701 Y120.114 E28.85151
G1 X57.443 Y119.637 E28.95736
G1 X58.592 Y119.066 E29.11133
G1 X60.047 Y118.482 E29.29947
G1 X61.009 Y117.905 E29.43408
G1 X61.868 Y117.183 E29.56874
G1 X62.596 Y116.341 E29.70231
G1 X63.19 Y115.383 E29.83757
G1 X63.623 Y114.35 E29.97198
G1 X63.884 Y113.271 E30.1052
G1 X63.973 Y112.14 E30.24134
G1 X63.885 Y111.031 E30.37484
G1 X63.621 Y109.94 E30.50953
G1 X63.19 Y108.909 E30.64363
G1 X62.599 Y107.956 E30.77819
G1 X61.866 Y107.109 E30.91261
G1 X61.006 Y106.386 E31.04743
G1 X60.049 Y105.812 E31.18135
G1 X58.432 Y105.163 E31.39043
G1 X57.715 Y104.832 E31.4852
G1 X57.035 Y104.43 E31.57999
G1 X56.399 Y103.962 E31.67475
G1 X55.662 Y103.274 E31.79573
G1 X54.979 Y102.549 E31.91526
G1 X54.467 Y101.947 E32.01009
G1 X53.948 Y101.179 E32.12132
G1 X53.407 Y100.267 E32.24857
G1 X53.039 Y99.569 E32.34326
G1 X52.659 Y98.578 E32.47062
G1 X52.347 Y97.562 E32.59816
G1 X52.153 Y96.796 E32.69298
G1 X52.018 Y95.749 E32.81966
G1 X51.953 Y94.687 E32.94734
G1 X51.944 Y93.897 E33.04215
G1 X52.057 Y92.851 E33.1684
G1 X52.243 Y91.8 E33.29648
G1 X52.42 Y91.03 E33.39129
G1 X52.782 Y90.023 E33.5197
G1 X53.208 Y89.053 E33.64683
G1 X53.562 Y88.347 E33.7416
G1 X54.147 Y87.46 E33.86911
G1 X54.792 Y86.614 E33.99677
G1 X55.302 Y86.011 E34.09154
G1 X56.079 Y85.287 E34.21898
G1 X56.908 Y84.614 E34.34712
G1 X57.545 Y84.148 E34.44183
G0 F3600 X57.782 Y84.472
G1 F1800 X58.647 Y83.987 E34.56083
G1 X59.604 Y83.532 E34.68799
G1 X60.314 Y83.238 E34.78021
G1 X61.247 Y82.976 E34.8965
G1 X62.29 Y82.755 E35.02443
G1 X63.05 Y82.635 E35.11676
G1 X64.033 Y82.597 E35.23481
G1 X65.096 Y82.627 E35.36242
G1 X65.862 Y82.689 E35.45464
G1 X66.842 Y82.887 E35.57462
G1 X67.864 Y83.167 E35.70178
G1 X68.595 Y83.409 E35.79418
G1 X69.49 Y83.828 E35.91277
G1 X70.423 Y84.344 E36.04071
G1 X71.076 Y84.751 E36.13304
G1 X71.837 Y85.36 E36.25001
G1 X72.623 Y86.079 E36.37784
G1 X73.162 Y86.627 E36.47007
G1 X73.642 Y87.228 E36.56237
G1 X74.057 Y87.875 E36.65461
G1 X74.465 Y88.707 E36.76581
G1 X75.176 Y90.424 E36.98882
G1 X75.799 Y91.466 E37.1345
G1 X76.546 Y92.362 E37.27449
G1 X77.42 Y93.126 E37.41379
G1 X78.417 Y93.753 E37.55512
G1 X79.486 Y94.209 E37.69458
G1 X80.644 Y94.503 E37.83795
G1 X81.823 Y94.609 E37.98
G1 X83.005 Y94.529 E38.12217
G1 X84.159 Y94.262 E38.26431
G1 X85.238 Y93.823 E38.40409
G1 X86.255 Y93.208 E38.54671
G1 X87.159 Y92.442 E38.6889
G1 X87.93 Y91.543 E38.83102
G1 X88.55 Y90.535 E38.97303
G1 X89.224 Y88.903 E39.18491
G1 X89.576 Y88.132 E39.28662
G1 X89.97 Y87.472 E39.37886
G1 X90.43 Y86.856 E39.47111
G1 X91.045 Y86.201 E39.57893
G1 X91.772 Y85.516 E39.6988
G1 X92.359 Y85.018 E39.79117
G1 X93.069 Y84.539 E39.89395
G1 X93.98 Y83.998 E40.02109
G1 X94.66 Y83.641 E40.11325
G1 X95.583 Y83.288 E40.23184
G1 X96.601 Y82.975 E40.35964
G1 X97.347 Y82.787 E40.45196
G1 X98.33 Y82.661 E40.57088
G1 X99.39 Y82.597 E40.69832
G1 X100.159 Y82.591 E40.7906
G1 X101.132 Y82.698 E40.90806
G1 X102.183 Y82.885 E41.03616
G1 X102.933 Y83.059 E41.12855
G1 X103.863 Y83.396 E41.24725
G1 X104.833 Y83.822 E41.37439
G1 X105.52 Y84.167 E41.46664
G1 X106.343 Y84.711 E41.58502
G1 X107.188 Y85.355 E41.71251
G1 X107.774 Y85.853 E41.8048
G1 X108.447 Y86.577 E41.92341
G1 X109.12 Y87.406 E42.05155
G1 X109.573 Y88.028 E42.14389
G1 X110.057 Y88.89 E42.26252
G1 X110.07 Y88.918 E42.26622
G1 X111.741 Y88.515 E42.47249
G1 X112.498 Y88.374 E42.56489
G1 X115.317 Y88.14 E42.90434
G1 X116.086 Y88.119 E42.99665
G1 X118.911 Y88.329 E43.33659
G1 X119.674 Y88.429 E43.42893
G1 X122.422 Y89.076 E43.76771
G1 X123.16 Y89.294 E43.86005
G1 X125.771 Y90.362 E44.19857
G1 X126.465 Y90.693 E44.29083
G1 X128.883 Y92.161 E44.63028
G1 X129.517 Y92.596 E44.72255
G1 X131.669 Y94.419 E45.06099
G1 X132.227 Y94.948 E45.15326
G1 X134.069 Y97.088 E45.49209
G1 X134.538 Y97.698 E45.58442
G1 X136.017 Y100.086 E45.92149
G1 X136.385 Y100.761 E46.01375
G1 X137.477 Y103.364 E46.35248
G1 X137.735 Y104.089 E46.44483
G1 X138.406 Y106.82 E46.78229
G1 X138.548 Y107.576 E46.8746
G1 X138.785 Y110.384 E47.21276
G1 X138.807 Y111.153 E47.30507
G1 X138.601 Y113.999 E47.64749
G1 X138.503 Y114.762 E47.7398
G1 X137.854 Y117.521 E48.07992
G1 X137.636 Y118.259 E48.17226
G1 X136.566 Y120.872 E48.51109
G1 X136.235 Y121.567 E48.60347
G1 X134.771 Y123.978 E48.94195
G1 X134.336 Y124.612 E49.03421
G1 X132.521 Y126.757 E49.3714
G1 X131.992 Y127.316 E49.46375
G1 X129.865 Y129.153 E49.80101
G1 X129.255 Y129.622 E49.89334
G1 X126.866 Y131.105 E50.23076
G1 X126.19 Y131.473 E50.32313
G1 X123.598 Y132.566 E50.66069
G1 X122.874 Y132.825 E50.75296
G1 X120.143 Y133.501 E51.09057
G1 X119.387 Y133.644 E51.1829
G1 X116.572 Y133.885 E51.52194
G1 X115.421 Y133.89 E51.66006
G1 X112.941 Y133.706 E51.95847
G1 X112.178 Y133.609 E52.05077
G1 X110.931 Y133.322 E52.20432
G1 X110.659 Y134.081 E52.30108
G1 X110.236 Y135.051 E52.42806
G1 X109.892 Y135.739 E52.52037
G1 X109.35 Y136.563 E52.63872
G1 X108.705 Y137.414 E52.76686
G1 X108.21 Y138.002 E52.85909
G1 X107.486 Y138.678 E52.97796
G1 X106.666 Y139.347 E53.10495
G1 X106.046 Y139.801 E53.19716
G1 X105.186 Y140.286 E53.31564
G1 X104.226 Y140.746 E53.44339
G1 X103.516 Y141.042 E53.53569
G1 X102.57 Y141.311 E53.65371
G1 X101.528 Y141.533 E53.78156
G1 X100.768 Y141.654 E53.87391
G1 X99.798 Y141.693 E53.9904
G1 X98.735 Y141.666 E54.118
G1 X97.968 Y141.606 E54.21032
G1 X96.989 Y141.411 E54.33011
G1 X95.966 Y141.134 E54.45729
G1 X95.235 Y140.894 E54.54962
G1 X94.338 Y140.477 E54.66832
G1 X93.402 Y139.963 E54.79646
G1 X92.748 Y139.559 E54.88871
G1 X91.981 Y138.948 E55.00638
G1 X91.196 Y138.233 E55.1338
G1 X90.655 Y137.686 E55.22612
G1 X90.174 Y137.086 E55.3184
G1 X89.729 Y136.389 E55.41764
G1 X89.191 Y135.306 E55.56275
G1 X88.592 Y133.817 E55.75535
G1 X87.986 Y132.806 E55.89679
G1 X87.224 Y131.899 E56.03894
G1 X86.327 Y131.123 E56.18127
G1 X85.324 Y130.501 E56.3229
G1 X84.228 Y130.043 E56.46544
G1 X83.082 Y129.766 E56.60692
G1 X81.899 Y129.672 E56.74933
G1 X80.716 Y129.766 E56.89173
G1 X79.567 Y130.044 E57.03359
G1 X78.48 Y130.499 E57.175
G1 X77.469 Y131.125 E57.31769
G1 X76.574 Y131.9 E57.45976
G1 X75.812 Y132.806 E57.60182
G1 X75.206 Y133.817 E57.74327
G1 X74.544 Y135.465 E57.95639
G1 X74.22 Y136.163 E58.04873
G1 X73.826 Y136.823 E58.14097
G1 X73.366 Y137.439 E58.23323
G1 X72.753 Y138.091 E58.34062
G1 X72.036 Y138.767 E58.45887
G1 X71.45 Y139.265 E58.55115
G1 X70.744 Y139.743 E58.65346
G1 X69.833 Y140.285 E58.78067
G1 X69.152 Y140.643 E58.87299
G1 X68.242 Y140.992 E58.98995
G1 X67.227 Y141.307 E59.11748
G1 X66.482 Y141.497 E59.20974
G1 X65.493 Y141.626 E59.32942
G1 X64.432 Y141.692 E59.45699
G1 X63.663 Y141.7 E59.54928
G1 X62.705 Y141.597 E59.6649
G1 X61.653 Y141.414 E59.79303
G1 X60.903 Y141.242 E59.88537
G1 X59.949 Y140.9 E60.00698
G1 X58.98 Y140.475 E60.13396
G1 X58.292 Y140.13 E60.22632
G1 X57.486 Y139.599 E60.34214
G1 X56.639 Y138.958 E60.4696
G1 X56.051 Y138.462 E60.56191
G1 X55.369 Y137.733 E60.68171
G1 X54.694 Y136.905 E60.8099
G1 X54.24 Y136.284 E60.90221
G1 X53.758 Y135.429 E61.01999
G1 X53.3 Y134.474 E61.14709
G1 X53.004 Y133.764 E61.2394
G1 X52.734 Y132.815 E61.3578
G1 X52.512 Y131.772 E61.48576
G1 X52.391 Y131.012 E61.57811
G1 X52.352 Y130.043 E61.69448
G1 X52.379 Y128.98 E61.82208
G1 X52.439 Y128.213 E61.91441
G1 X52.634 Y127.234 E62.03419
G1 X52.911 Y126.211 E62.16137
G1 X53.151 Y125.48 E62.2537
G1 X53.571 Y124.578 E62.3731
G1 X54.086 Y123.642 E62.5013
G1 X54.491 Y122.988 E62.59361
G1 X55.105 Y122.219 E62.71169
G1 X55.821 Y121.435 E62.8391
G1 X56.368 Y120.895 E62.93134
G1 X56.969 Y120.414 E63.02372
G1 X57.64 Y119.985 E63.11929
G1 X58.741 Y119.438 E63.26681
G1 X60.222 Y118.843 E63.45834
G1 X61.243 Y118.231 E63.60118
G1 X62.147 Y117.471 E63.74291
G1 X62.921 Y116.577 E63.88481
G1 X63.546 Y115.568 E64.02723
G1 X64.002 Y114.478 E64.16902
G1 X64.281 Y113.328 E64.31102
G1 X64.374 Y112.145 E64.45342
G1 X64.28 Y110.961 E64.59595
G1 X64.003 Y109.815 E64.73743
G1 X63.547 Y108.725 E64.87921
G1 X62.923 Y107.719 E65.02127
G1 X62.146 Y106.822 E65.16368
G1 X61.24 Y106.06 E65.30574
G1 X60.229 Y105.454 E65.44718
G1 X58.581 Y104.792 E65.6603
G1 X57.883 Y104.468 E65.75265
G1 X57.223 Y104.074 E65.84489
G1 X56.607 Y103.614 E65.93714
G1 X55.953 Y102.999 E66.04487
G1 X55.27 Y102.274 E66.1644
G1 X54.772 Y101.688 E66.25668
G1 X54.292 Y100.975 E66.35982
G1 X53.751 Y100.063 E66.48707
G1 X53.393 Y99.382 E66.57939
G1 X53.041 Y98.46 E66.69782
G1 X52.729 Y97.444 E66.82536
G1 X52.542 Y96.698 E66.91765
G1 X52.417 Y95.724 E67.03549
G1 X52.352 Y94.662 E67.16317
G1 X52.345 Y93.893 E67.25545
G1 X52.451 Y92.92 E67.3729
G1 X52.637 Y91.869 E67.50098
G1 X52.81 Y91.12 E67.59323
G1 X53.149 Y90.183 E67.7128
G1 X53.575 Y89.213 E67.83993
G1 X53.92 Y88.526 E67.93218
G1 X54.465 Y87.702 E68.05073
G1 X55.11 Y86.856 E68.17839
G1 X55.608 Y86.27 E68.27068
G1 X56.331 Y85.598 E68.38913
G1 X57.16 Y84.925 E68.51726
G1 X57.782 Y84.472 E68.6096
G0 F3600 X58.017 Y84.796
G1 F1800 X58.818 Y84.348 E68.71973
G1 X59.775 Y83.893 E68.84689
G1 X60.467 Y83.608 E68.9367
G1 X61.33 Y83.367 E69.04422
G1 X62.373 Y83.146 E69.17216
G1 X63.112 Y83.03 E69.26192
G1 X64.021 Y82.997 E69.37107
G1 X65.084 Y83.027 E69.49869
G1 X65.83 Y83.088 E69.5885
G1 X66.737 Y83.273 E69.69958
G1 X67.759 Y83.553 E69.82674
G1 X68.469 Y83.789 E69.91653
G1 X69.297 Y84.178 E70.02631
G1 X70.23 Y84.694 E70.15425
G1 X70.864 Y85.091 E70.24401
G1 X71.567 Y85.655 E70.35217
G1 X72.353 Y86.374 E70.48
G1 X72.877 Y86.908 E70.56978
G1 X73.341 Y87.494 E70.65947
G1 X73.74 Y88.127 E70.74926
G1 X74.095 Y88.86 E70.84699
G1 X74.818 Y90.605 E71.07366
G1 X75.469 Y91.695 E71.22601
G1 X76.259 Y92.643 E71.37409
G1 X77.184 Y93.45 E71.5214
G1 X78.231 Y94.109 E71.66985
G1 X79.356 Y94.589 E71.81663
G1 X80.573 Y94.898 E71.9673
G1 X81.821 Y95.01 E72.11766
G1 X83.06 Y94.926 E72.26668
G1 X84.282 Y94.643 E72.41721
G1 X85.415 Y94.182 E72.56399
G1 X86.494 Y93.53 E72.71527
